static/assets/images/icons/telescope.svg

<svg width="256" height="256" viewBox="0 0 256 256" fill="none" xmlns="http://www.w3.org/2000/svg">
<path d="M61.9924 137.798C61.0421 136.152 59.4769 134.951 57.6411 134.459C55.8053 133.967 53.8491 134.223 52.2026 135.173L29.9303 148.016C27.8451 149.21 26.0237 150.815 24.576 152.733C23.1283 154.65 22.0843 156.842 21.507 159.174C20.3958 163.798 21.1268 168.674 23.5456 172.769L25.4991 176.147C27.8772 180.258 31.7907 183.257 36.3795 184.485C40.9683 185.713 45.857 185.07 49.9714 182.696L72.2258 169.871C73.0418 169.401 73.7572 168.775 74.331 168.028C74.9048 167.281 75.3259 166.429 75.5702 165.52C75.8144 164.61 75.877 163.662 75.7545 162.728C75.6319 161.795 75.3265 160.894 74.8558 160.079L61.9924 137.798Z" fill="black"/>
<path d="M185.33 223.266L143.16 139.59C143.058 139.385 143.037 139.149 143.103 138.93C143.169 138.711 143.316 138.526 143.514 138.412L147.233 136.266C148.049 135.795 148.764 135.169 149.337 134.422C149.91 133.675 150.331 132.823 150.575 131.914C150.819 131.004 150.881 130.056 150.758 129.122C150.635 128.189 150.33 127.289 149.859 126.474L128.563 89.5941C128.093 88.7782 127.466 88.063 126.72 87.4893C125.973 86.9156 125.12 86.4946 124.211 86.2504C123.301 86.0062 122.353 85.9436 121.419 86.0662C120.485 86.1887 119.584 86.494 118.769 86.9646L80.0666 109.272C78.0235 110.443 76.233 112.007 74.7986 113.874C73.3643 115.74 72.3147 117.873 71.7105 120.149C71.2995 121.569 71.0928 123.042 71.0967 124.521C71.1236 127.925 75.2188 134.689 79.2153 141.668C83.5121 149.171 87.8357 156.845 91.0168 158.757C93.042 159.976 96.6174 160.952 99.6238 160.952H100L72.4612 222.82C72.0652 223.675 71.8416 224.599 71.8032 225.54C71.7647 226.481 71.9121 227.421 72.237 228.305C72.5619 229.189 73.0579 230 73.6967 230.692C74.3354 231.385 75.1043 231.944 75.9595 232.339C76.8147 232.734 77.7394 232.957 78.6807 232.994C79.622 233.032 80.5614 232.883 81.4453 232.558C82.3292 232.232 83.1402 231.735 83.832 231.096C84.5238 230.457 85.0827 229.687 85.4769 228.832L119.45 153.055C119.759 152.383 120.269 151.824 120.91 151.456L129.517 146.493C129.623 146.432 129.74 146.394 129.861 146.38C129.982 146.366 130.105 146.378 130.221 146.413C130.338 146.448 130.446 146.507 130.539 146.585C130.632 146.663 130.708 146.76 130.763 146.869L172.525 229.739C172.949 230.58 173.534 231.329 174.247 231.943C174.96 232.558 175.788 233.026 176.682 233.321C177.576 233.616 178.519 233.732 179.458 233.662C180.397 233.593 181.313 233.339 182.154 232.915C182.995 232.492 183.744 231.907 184.358 231.194C184.973 230.481 185.441 229.654 185.736 228.76C186.031 227.866 186.147 226.923 186.078 225.984C186.008 225.045 185.754 224.129 185.33 223.289V223.266ZM233.437 77.6562L212.773 41.9368C210.388 37.8315 206.474 34.8377 201.887 33.6104C197.3 32.383 192.413 33.0221 188.296 35.3878L146.476 59.4784C144.432 60.6481 142.641 62.2118 141.207 64.0788C139.773 65.9458 138.723 68.079 138.12 70.3546C137.526 72.2734 137.333 74.2934 137.551 76.29C138.33 81.9431 143.375 89.9076 149.384 100.43C155.468 111.06 162.337 123.042 165.93 125.636C168.968 127.782 172.596 128.936 176.316 128.937C179.449 128.939 182.528 128.113 185.241 126.545L227.07 102.441C229.151 101.249 230.969 99.6492 232.416 97.7371C233.863 95.825 234.908 93.6403 235.489 91.3142C236.609 86.668 235.872 81.7685 233.437 77.6562Z" fill="black"/>
</svg>

<svg xmlns="http://www.w3.org/2000/svg" fill="none" viewBox="0 0 256 256"><path fill="#000" d="M61.992 137.798a7.166 7.166 0 0 0-9.79-2.625L29.93 148.016a17.77 17.77 0 0 0-8.423 11.158 18.32 18.32 0 0 0 2.039 13.595l1.953 3.378a17.92 17.92 0 0 0 24.472 6.549l22.255-12.825a7.16 7.16 0 0 0 3.344-4.351 7.17 7.17 0 0 0-.714-5.441z"/><path fill="#000" d="m185.33 223.266-42.17-83.676a.9.9 0 0 1 .354-1.178l3.719-2.146a7.16 7.16 0 0 0 3.525-7.144 7.2 7.2 0 0 0-.899-2.648l-21.296-36.88a7.17 7.17 0 0 0-4.352-3.344 7.17 7.17 0 0 0-5.442.715l-38.702 22.307a17.8 17.8 0 0 0-8.356 10.877 15.6 15.6 0 0 0-.614 4.372c.027 3.404 4.122 10.168 8.118 17.147 4.297 7.503 8.62 15.177 11.802 17.089 2.025 1.219 5.6 2.195 8.607 2.195H100L72.461 222.82a7.167 7.167 0 0 0 8.984 9.738 7.18 7.18 0 0 0 4.032-3.726l33.973-75.777a3.56 3.56 0 0 1 1.46-1.599l8.607-4.963a.895.895 0 0 1 1.246.376l41.762 82.87a7.17 7.17 0 0 0 4.157 3.582 7.16 7.16 0 0 0 5.472-.406 7.16 7.16 0 0 0 3.176-9.626zm48.107-145.61-20.664-35.72a17.957 17.957 0 0 0-24.477-6.548l-41.82 24.09a17.78 17.78 0 0 0-8.356 10.877 14.7 14.7 0 0 0-.569 5.935c.779 5.653 5.824 13.618 11.833 24.14 6.084 10.63 12.953 22.612 16.546 25.206a18 18 0 0 0 10.386 3.301 17.8 17.8 0 0 0 8.925-2.392l41.829-24.104a17.8 17.8 0 0 0 8.419-11.127 18.36 18.36 0 0 0-2.052-13.658"/></svg>
